T: Willie Coleman's
M: 6/8
L: 1/8
K: Gmaj
|: A |B2 G AGE | GED GBd | edB dgb | age dBA |
B2 G AGE | GED GBd | edB dBA | BGF G2 :|
|: d |gfg edB | dgb ag| gfg edB | GBd e2 f |
gfg edB | dgb age | d^cd gdB | AGF G2 :|
